src/assets/img/partners/micare.svg

<svg clip-rule="evenodd" fill-rule="evenodd" stroke-linejoin="round" stroke-miterlimit="2" viewBox="0 0 1266 1266" xmlns="http://www.w3.org/2000/svg"><path d="m.975.975h1264.87v1264.87h-1264.87z" fill="none"/><g fill-rule="nonzero"><path d="m187.421 869.458h22.333v67.046h-22.333zm-59.167 0h23.746l17.988 29.809 14.145-24.25v33.75l-16.116 27.737zm-.05 67.046v-60.829l20.867 35.013v25.816z" fill="#58595b"/><path d="m220.967 882.846h22.383v53.654h-22.383zm0-20.458h22.383v14.245h-22.383z" fill="#58595b"/><path d="m279.322 936.504v-12.529h9.904v-6.721h22.329v5.862l-13.387 13.388zm0-40.267v-13.392h18.846l13.387 13.392v8.033h-22.329v-8.033zm-3.538 40.267h-8.941l-13.388-13.388v-26.879l13.388-13.392h8.941z" fill="#58595b"/><path d="m356.118 936.504v-40.267h-31.779v-6.671l6.721-6.721h33.495l13.388 13.392v40.267zm-3.538-31.225v9.296h-11.516v9.4h11.516v5.912l-6.666 6.617h-17.079l-8.992-8.842v-13.437l8.992-8.946z" fill="#58595b"/><path d="m423.415 896.236h-9.5v-5.862l7.48-7.525h13.541l10.863 12.529v13.892h-22.384zm-35.416-13.387h22.333v53.654h-22.333z" fill="#58595b"/><path d="m478.082 936.504v-12.529h30.013v5.808l-6.671 6.721zm0-21.525v-9.346h11.771v-9.396h-11.771v-13.392h18.946l13.387 13.392v18.742zm-3.537 21.525h-8.942l-13.388-13.388v-26.879l13.388-13.392h8.942z" fill="#58595b"/><path d="m545.936 882.848v-13.388h25.058l13.392 13.388v22.987l-13.392 13.442h-25.058v-13.442h16.217v-22.987zm-25.463-13.388h21.93v67.046h-21.93z" fill="#58595b"/><path d="m628.997 896.236h-9.5v-5.862l7.479-7.525h13.542l10.862 12.529v13.892h-22.383zm-35.417-13.387h22.333v53.654h-22.333z" fill="#58595b"/><path d="m718.07 923.115-13.387 13.388h-14.959v-12.53h5.559v-27.737h-5.559v-13.388h14.959l13.387 13.388zm-37.692.858h5.813v12.53h-15.008l-13.388-13.388v-26.879l13.388-13.388h15.008v13.388h-5.813z" fill="#58595b"/><path d="m786.629 936.504h-22.333v-74.116h22.333zm-36.629-12.529h10.763v7.225l-5.305 5.304h-15.712l-12.075-12.075v-29.508l12.075-12.075h21.017v13.392h-10.763z" fill="#58595b"/><path d="m854.838 936.504h-22.334v-53.658h22.334zm-35.821-13.387h9.954v6.666l-6.467 6.721h-12.379l-13.442-13.387v-40.271h22.334z" fill="#58595b"/><path d="m890.752 936.504v-12.529h9.904v-6.721h22.329v5.862l-13.387 13.388zm0-40.267v-13.392h18.846l13.387 13.392v8.033h-22.329v-8.033zm-3.538 40.267h-8.933l-13.388-13.388v-26.879l13.388-13.392h8.933z" fill="#58595b"/><path d="m958.654 882.846h12.025v13.387h-12.025zm-3.533 40.271h14.75v13.387h-23.646l-13.437-13.387v-26.879h-4.446v-13.392h4.446v-5.808l22.333-7.58z" fill="#58595b"/><path d="m978.463 882.846h22.387v53.654h-22.387zm0-20.458h22.387v14.245h-22.387z" fill="#58595b"/><path d="m1071.22 923.115-13.38 13.388h-14.96v-12.53h5.55v-27.737h-5.55v-13.388h14.96l13.38 13.388zm-37.69.858h5.81v12.53h-15l-13.39-13.388v-26.879l13.39-13.388h15v13.388h-5.81z" fill="#58595b"/><path d="m1117.05 896.236h-9.6v-5.862l7.48-7.525h12.43l12.07 12.075v41.579h-22.38zm-35.77-13.387h22.53v53.654h-22.53z" fill="#58595b"/><path d="m915.647 330.313h-212.771l-68.983 119.492h-.959l-68.983-119.492h-212.771l-282.246 488.85h141.125l211.675-366.638h103.609l108.07 187.184 108.071-187.184h103.604l211.682 366.638h141.11z" fill="#58595b"/><path d="m472.141 782.627c-10.483 0-19.054-8.571-19.054-19.05v-46.663c0-10.483 8.571-19.058 19.054-19.058 10.475 0 19.046 8.575 19.046 19.058v46.663c0 10.479-8.571 19.05-19.046 19.05" fill="#58595b"/><path d="m473.808 714.09c0 3.812-3.091 6.9-6.9 6.9-3.812 0-6.904-3.088-6.904-6.9 0-3.813 3.092-6.9 6.904-6.9 3.809 0 6.9 3.087 6.9 6.9" fill="#fff"/><path d="m794.684 782.627c-10.475 0-19.054-8.571-19.054-19.05v-46.663c0-10.483 8.579-19.058 19.054-19.058 10.484 0 19.054 8.575 19.054 19.058v46.663c0 10.479-8.57 19.05-19.054 19.05" fill="#58595b"/><path d="m796.356 714.09c0 3.812-3.092 6.9-6.9 6.9-3.813 0-6.904-3.088-6.904-6.9 0-3.813 3.091-6.9 6.904-6.9 3.808 0 6.9 3.087 6.9 6.9" fill="#fff"/><path d="m277.426 702.845 8.634-14.954-108.925-55.762-8.634 14.954z" fill="#fff"/><path d="m244.723 759.491 8.633-14.954-108.925-55.763-8.633 14.954z" fill="#fff"/><path d="m991.131 705.201 108.919-55.758-8.63-14.955-108.922 55.759z" fill="#fff"/><path d="m1023.84 761.846 108.92-55.758-8.64-14.954-108.92 55.758z" fill="#fff"/></g></svg>

<?xml version="1.0" encoding="UTF-8" standalone="no"?><!DOCTYPE svg PUBLIC "-//W3C//DTD SVG 1.1//EN" "http://www.w3.org/Graphics/SVG/1.1/DTD/svg11.dtd"><svg width="100%" height="100%" viewBox="0 0 1266 1266" version="1.1" xmlns="http://www.w3.org/2000/svg" xmlns:xlink="http://www.w3.org/1999/xlink" xml:space="preserve" xmlns:serif="http://www.serif.com/" style="fill-rule:evenodd;clip-rule:evenodd;stroke-linejoin:round;stroke-miterlimit:2;"><rect x="0.975" y="0.975" width="1264.87" height="1264.87" style="fill:none;"/><g><path d="M187.421,869.458L209.754,869.458L209.754,936.504L187.421,936.504L187.421,869.458ZM128.254,869.458L152,869.458L169.988,899.267L184.133,875.017L184.133,908.767L168.017,936.504L128.254,869.458ZM128.204,936.504L128.204,875.675L149.071,910.688L149.071,936.504L128.204,936.504Z" style="fill:rgb(88,89,91);fill-rule:nonzero;"/><path d="M220.967,882.846L243.35,882.846L243.35,936.5L220.967,936.5L220.967,882.846ZM220.967,862.388L243.35,862.388L243.35,876.633L220.967,876.633L220.967,862.388Z" style="fill:rgb(88,89,91);fill-rule:nonzero;"/><path d="M279.322,936.504L279.322,923.975L289.226,923.975L289.226,917.254L311.555,917.254L311.555,923.116L298.168,936.504L279.322,936.504ZM279.322,896.237L279.322,882.845L298.168,882.845L311.555,896.237L311.555,904.27L289.226,904.27L289.226,896.237L279.322,896.237ZM275.784,936.504L266.843,936.504L253.455,923.116L253.455,896.237L266.843,882.845L275.784,882.845L275.784,936.504Z" style="fill:rgb(88,89,91);fill-rule:nonzero;"/><path d="M356.118,936.504L356.118,896.237L324.339,896.237L324.339,889.566L331.06,882.845L364.555,882.845L377.943,896.237L377.943,936.504L356.118,936.504ZM352.58,905.279L352.58,914.575L341.064,914.575L341.064,923.975L352.58,923.975L352.58,929.887L345.914,936.504L328.835,936.504L319.843,927.662L319.843,914.225L328.835,905.279L352.58,905.279Z" style="fill:rgb(88,89,91);fill-rule:nonzero;"/><path d="M423.415,896.236L413.915,896.236L413.915,890.374L421.395,882.849L434.936,882.849L445.799,895.378L445.799,909.27L423.415,909.27L423.415,896.236ZM387.999,882.849L410.332,882.849L410.332,936.503L387.999,936.503L387.999,882.849Z" style="fill:rgb(88,89,91);fill-rule:nonzero;"/><path d="M478.082,936.504L478.082,923.975L508.095,923.975L508.095,929.783L501.424,936.504L478.082,936.504ZM478.082,914.979L478.082,905.633L489.853,905.633L489.853,896.237L478.082,896.237L478.082,882.845L497.028,882.845L510.415,896.237L510.415,914.979L478.082,914.979ZM474.545,936.504L465.603,936.504L452.215,923.116L452.215,896.237L465.603,882.845L474.545,882.845L474.545,936.504Z" style="fill:rgb(88,89,91);fill-rule:nonzero;"/><path d="M545.936,882.848L545.936,869.46L570.994,869.46L584.386,882.848L584.386,905.835L570.994,919.277L545.936,919.277L545.936,905.835L562.153,905.835L562.153,882.848L545.936,882.848ZM520.473,869.46L542.403,869.46L542.403,936.506L520.473,936.506L520.473,869.46Z" style="fill:rgb(88,89,91);fill-rule:nonzero;"/><path d="M628.997,896.236L619.497,896.236L619.497,890.374L626.976,882.849L640.518,882.849L651.38,895.378L651.38,909.27L628.997,909.27L628.997,896.236ZM593.58,882.849L615.913,882.849L615.913,936.503L593.58,936.503L593.58,882.849Z" style="fill:rgb(88,89,91);fill-rule:nonzero;"/><path d="M718.07,923.115L704.683,936.503L689.724,936.503L689.724,923.973L695.283,923.973L695.283,896.236L689.724,896.236L689.724,882.848L704.683,882.848L718.07,896.236L718.07,923.115ZM680.378,923.973L686.191,923.973L686.191,936.503L671.183,936.503L657.795,923.115L657.795,896.236L671.183,882.848L686.191,882.848L686.191,896.236L680.378,896.236L680.378,923.973Z" style="fill:rgb(88,89,91);fill-rule:nonzero;"/><path d="M786.629,936.504L764.296,936.504L764.296,862.388L786.629,862.388L786.629,936.504ZM750,923.975L760.763,923.975L760.763,931.2L755.458,936.504L739.746,936.504L727.671,924.429L727.671,894.921L739.746,882.846L760.763,882.846L760.763,896.238L750,896.238L750,923.975Z" style="fill:rgb(88,89,91);fill-rule:nonzero;"/><path d="M854.838,936.504L832.504,936.504L832.504,882.846L854.838,882.846L854.838,936.504ZM819.017,923.117L828.971,923.117L828.971,929.783L822.504,936.504L810.125,936.504L796.683,923.117L796.683,882.846L819.017,882.846L819.017,923.117Z" style="fill:rgb(88,89,91);fill-rule:nonzero;"/><path d="M890.752,936.504L890.752,923.975L900.656,923.975L900.656,917.254L922.985,917.254L922.985,923.116L909.598,936.504L890.752,936.504ZM890.752,896.237L890.752,882.845L909.598,882.845L922.985,896.237L922.985,904.27L900.656,904.27L900.656,896.237L890.752,896.237ZM887.214,936.504L878.281,936.504L864.893,923.116L864.893,896.237L878.281,882.845L887.214,882.845L887.214,936.504Z" style="fill:rgb(88,89,91);fill-rule:nonzero;"/><path d="M958.654,882.846L970.679,882.846L970.679,896.233L958.654,896.233L958.654,882.846ZM955.121,923.117L969.871,923.117L969.871,936.504L946.225,936.504L932.788,923.117L932.788,896.238L928.342,896.238L928.342,882.846L932.788,882.846L932.788,877.038L955.121,869.458L955.121,923.117Z" style="fill:rgb(88,89,91);fill-rule:nonzero;"/><path d="M978.463,882.846L1000.85,882.846L1000.85,936.5L978.463,936.5L978.463,882.846ZM978.463,862.388L1000.85,862.388L1000.85,876.633L978.463,876.633L978.463,862.388Z" style="fill:rgb(88,89,91);fill-rule:nonzero;"/><path d="M1071.22,923.115L1057.84,936.503L1042.88,936.503L1042.88,923.973L1048.43,923.973L1048.43,896.236L1042.88,896.236L1042.88,882.848L1057.84,882.848L1071.22,896.236L1071.22,923.115ZM1033.53,923.973L1039.34,923.973L1039.34,936.503L1024.34,936.503L1010.95,923.115L1010.95,896.236L1024.34,882.848L1039.34,882.848L1039.34,896.236L1033.53,896.236L1033.53,923.973Z" style="fill:rgb(88,89,91);fill-rule:nonzero;"/><path d="M1117.05,896.236L1107.45,896.236L1107.45,890.374L1114.93,882.849L1127.36,882.849L1139.43,894.924L1139.43,936.503L1117.05,936.503L1117.05,896.236ZM1081.28,882.849L1103.81,882.849L1103.81,936.503L1081.28,936.503L1081.28,882.849Z" style="fill:rgb(88,89,91);fill-rule:nonzero;"/><path d="M915.647,330.313L702.876,330.313L633.893,449.805L632.934,449.805L563.951,330.313L351.18,330.313L68.934,819.163L210.059,819.163L421.734,452.525L525.343,452.525L633.413,639.709L741.484,452.525L845.088,452.525L1056.77,819.163L1197.88,819.163L915.647,330.313Z" style="fill:rgb(88,89,91);fill-rule:nonzero;"/><path d="M472.141,782.627C461.658,782.627 453.087,774.056 453.087,763.577L453.087,716.914C453.087,706.431 461.658,697.856 472.141,697.856C482.616,697.856 491.187,706.431 491.187,716.914L491.187,763.577C491.187,774.056 482.616,782.627 472.141,782.627" style="fill:rgb(88,89,91);fill-rule:nonzero;"/><path d="M473.808,714.09C473.808,717.902 470.717,720.99 466.908,720.99C463.096,720.99 460.004,717.902 460.004,714.09C460.004,710.277 463.096,707.19 466.908,707.19C470.717,707.19 473.808,710.277 473.808,714.09" style="fill:white;fill-rule:nonzero;"/><path d="M794.684,782.627C784.209,782.627 775.63,774.056 775.63,763.577L775.63,716.914C775.63,706.431 784.209,697.856 794.684,697.856C805.168,697.856 813.738,706.431 813.738,716.914L813.738,763.577C813.738,774.056 805.168,782.627 794.684,782.627" style="fill:rgb(88,89,91);fill-rule:nonzero;"/><path d="M796.356,714.09C796.356,717.902 793.264,720.99 789.456,720.99C785.643,720.99 782.552,717.902 782.552,714.09C782.552,710.277 785.643,707.19 789.456,707.19C793.264,707.19 796.356,710.277 796.356,714.09" style="fill:white;fill-rule:nonzero;"/><path d="M277.426,702.845L286.06,687.891L177.135,632.129L168.501,647.083L277.426,702.845Z" style="fill:white;fill-rule:nonzero;"/><path d="M244.723,759.491L253.356,744.537L144.431,688.774L135.798,703.728L244.723,759.491Z" style="fill:white;fill-rule:nonzero;"/><path d="M991.131,705.201L1100.05,649.443L1091.42,634.488L982.498,690.247L991.131,705.201Z" style="fill:white;fill-rule:nonzero;"/><path d="M1023.84,761.846L1132.76,706.088L1124.12,691.134L1015.2,746.892L1023.84,761.846Z" style="fill:white;fill-rule:nonzero;"/></g></svg>
